icons/communication/messageheart-24.svg

<svg width="24" height="24" viewBox="0 0 24 24" fill="none" xmlns="http://www.w3.org/2000/svg">
<path fill-rule="evenodd" clip-rule="evenodd" d="M7.5 10.6244C7.50048 8.84421 8.92315 7.50157 10.4507 7.50114C11.2596 7.50092 11.9625 7.81026 12.5007 8.31485C13.0392 7.81003 13.7419 7.50023 14.551 7.5C16.0781 7.49957 17.5005 8.84142 17.5 10.622C17.4995 12.487 16.1801 13.9662 15.1481 14.863L15.1462 14.8646C14.6763 15.2702 14.1785 15.6408 13.6566 15.9736C13.4539 16.1032 13.2843 16.2035 13.1649 16.2723L13.164 16.2728C13.0981 16.3106 13.0324 16.347 12.968 16.3818C12.9539 16.3894 12.9396 16.3965 12.9251 16.4031C12.7917 16.4668 12.646 16.5 12.4984 16.5C12.3381 16.5 12.1801 16.461 12.0375 16.3862L12.0338 16.3842C11.9662 16.3482 11.8992 16.3112 11.8328 16.273C11.1308 15.8688 10.467 15.3976 9.85147 14.8665L9.84941 14.8647C8.81768 13.9674 7.4995 12.4894 7.5 10.6244ZM10.4503 8.96323C9.71351 8.96344 8.93205 9.6513 8.93179 10.624C8.93148 11.7956 9.79302 12.8944 10.777 13.7504C11.3128 14.2127 11.8892 14.6234 12.4988 14.9776C12.6013 14.918 12.7379 14.8364 12.898 14.734C13.3613 14.4385 13.8041 14.109 14.2214 13.749C15.2053 12.8938 16.0679 11.794 16.0682 10.6224C16.0685 9.64931 15.287 8.96189 14.5506 8.96209C14.0323 8.96224 13.6012 9.19361 13.285 9.59154C12.8843 10.0958 12.1158 10.0957 11.7156 9.59184C11.3999 9.1943 10.9687 8.96309 10.4503 8.96323Z" fill="black"/>
<path fill-rule="evenodd" clip-rule="evenodd" d="M3.00001 11.5C3.00001 12.8408 3.27821 14.1184 3.78057 15.2767L2.08244 19.3131C1.7836 20.0234 2.36666 20.7906 3.13105 20.6928L8.3135 20.03C9.57728 20.6513 10.9989 21 12.5 21C17.7467 21 22 16.7467 22 11.5C22 6.25329 17.7467 2 12.5 2C7.2533 2 3.00001 6.25329 3.00001 11.5ZM12.5 3.5C8.08173 3.5 4.50001 7.08172 4.50001 11.5C4.50001 12.7385 4.78091 13.9092 5.28177 14.9539C5.39825 15.1969 5.37227 15.4713 5.23708 15.6828L3.80161 19.0948L8.34898 18.5132C8.48487 18.4958 8.61691 18.516 8.73469 18.5656C8.75906 18.5752 8.78317 18.5862 8.80691 18.5986C9.91092 19.1742 11.1663 19.5 12.5 19.5C16.9183 19.5 20.5 15.9183 20.5 11.5C20.5 7.08172 16.9183 3.5 12.5 3.5Z" fill="black"/>
</svg>

<svg xmlns="http://www.w3.org/2000/svg" width="24" height="24"><path fill-rule="evenodd" d="M7.5 10.624c0-1.78 1.423-3.122 2.95-3.123.81 0 1.513.31 2.05.814a2.958 2.958 0 012.051-.815c1.527 0 2.95 1.341 2.949 3.122 0 1.865-1.32 3.344-2.352 4.241l-.002.002a12.87 12.87 0 01-1.981 1.407h-.001a8.857 8.857 0 01-.239.131.99.99 0 01-.888-.017l-.003-.002a12.847 12.847 0 01-2.182-1.518l-.003-.001c-1.031-.898-2.35-2.376-2.349-4.24zm2.95-1.66c-.736 0-1.518.687-1.518 1.66 0 1.172.861 2.27 1.845 3.126.536.463 1.112.873 1.722 1.228a11.469 11.469 0 001.723-1.229c.983-.855 1.846-1.955 1.846-3.127 0-.973-.781-1.66-1.517-1.66-.519 0-.95.232-1.266.63-.4.504-1.17.504-1.57 0-.315-.398-.746-.629-1.265-.629z"/><path fill-rule="evenodd" d="M3 11.5c0 1.34.278 2.618.78 3.777l-1.698 4.036a1 1 0 001.05 1.38l5.181-.663A9.5 9.5 0 103 11.5zm9.5-8a8 8 0 00-7.218 11.454.75.75 0 01-.045.729l-1.435 3.412 4.547-.582a.746.746 0 01.458.086A8 8 0 1012.5 3.5z"/></svg>
